X: 11510
T: Eddie Kelly's
R: jig
M: 6/8
K: Eminor
|:BEF G2A|Bee dBA|BEF G2B|AFD AFD|
BEF G2A|Bee dBA|BEF GAB|1 AFD E3:|2 AFD E2f||
|:gfe fed|Bee Bee|gfe fed|B^cd e2f|
[1 gfe fed|Bee Bee|BEF GAB|AFD E2f:|
[2 g3 a3|bge dBA|BEF GAB|AFD E3:|

